source/symbols/connection-multi.svg

<?xml version="1.0" encoding="UTF-8" standalone="no"?>
<svg
   xmlns:dc="http://purl.org/dc/elements/1.1/"
   xmlns:cc="http://creativecommons.org/ns#"
   xmlns:rdf="http://www.w3.org/1999/02/22-rdf-syntax-ns#"
   xmlns:svg="http://www.w3.org/2000/svg"
   xmlns="http://www.w3.org/2000/svg"
   version="1.1"
   id="svg3891"
   height="2048"
   width="2048">
  <defs
     id="defs3893" />
  <metadata
     id="metadata3896">
    <rdf:RDF>
      <cc:Work
         rdf:about="">
        <dc:format>image/svg+xml</dc:format>
        <dc:type
           rdf:resource="http://purl.org/dc/dcmitype/StillImage" />
        <dc:title></dc:title>
      </cc:Work>
    </rdf:RDF>
  </metadata>
  <g
     transform="translate(0,995.63783)"
     id="layer1">
    <g
       id="layer1-6"
       transform="matrix(96.752895,0,0,96.752895,55.328158,-100816.34)">
      <path
         id="path7791"
         transform="matrix(0.01033561,0,0,0.01033561,-0.57185015,1031.7077)"
         d="M 1876.6602 106.36523 L 1036.1172 330.43555 L 1166.3926 523.57227 L 171.33984 1194.748 L 222.73828 1270.9316 L 1217.7891 599.75586 L 1344.4824 787.60156 L 1876.6445 106.375 L 1876.6602 106.36523 z M 1875.0156 778.17773 L 1034.4727 1002.2383 L 1342.8398 1459.4062 L 1875 778.1875 L 1875.0156 778.17773 z M 1037.877 1280.9551 L 909.35352 1367.6445 L 960.75195 1443.8379 L 1089.2754 1357.1582 L 1037.877 1280.9551 z M 780.82227 1454.3359 L 652.29102 1541.0273 L 703.6875 1617.2383 L 832.2207 1530.5391 L 780.82227 1454.3359 z M 507.1875 1638.9121 L 378.65625 1725.6113 L 430.05273 1801.8145 L 558.58594 1715.0957 L 507.1875 1638.9121 z M 250.13281 1812.293 L 171.33984 1865.4492 L 222.73828 1941.6426 L 301.5293 1888.4961 L 250.13281 1812.293 z "
         style="color:#000000;font-style:normal;font-variant:normal;font-weight:normal;font-stretch:normal;font-size:medium;line-height:normal;font-family:Sans;-inkscape-font-specification:Sans;text-indent:0;text-align:start;text-decoration:none;text-decoration-line:none;letter-spacing:normal;word-spacing:normal;text-transform:none;direction:ltr;block-progression:tb;writing-mode:lr-tb;baseline-shift:baseline;text-anchor:start;display:inline;overflow:visible;visibility:visible;fill:#000000;fill-opacity:1;fill-rule:nonzero;stroke:none;stroke-width:0.95637447;marker:none;enable-background:accumulate" />
    </g>
  </g>
</svg>

<svg xmlns="http://www.w3.org/2000/svg" width="2048" height="2048"><g color="#000" font-weight="400" font-family="Sans"><path style="line-height:normal;-inkscape-font-specification:Sans;text-indent:0;text-align:start;text-decoration-line:none;text-transform:none;block-progression:tb;marker:none" d="M1876.66 106.365l-840.543 224.07 130.275 193.138-995.052 671.175 51.399 76.183 995.051-671.175 126.692 187.846 532.162-681.227zM250.133 1812.293l-78.793 53.156 51.398 76.193 78.792-53.147zm1092.706-352.887L1875 778.188l.016-.01-840.542 224.06zm-304.962-178.451l-128.523 86.69 51.398 76.193 128.523-86.68zm-257.055 173.381l-128.53 86.69 51.395 76.213 128.533-86.7zm-273.634 184.576l-128.532 86.7 51.397 76.202 128.533-86.72z" overflow="visible"/></g></svg>
